X:415
T:Delight of the Men of Duffi,The. RH.415
R:jig
S:Rev.R.Harrison’s MS,c1815,Cumbria
O:England
A:Temple Sowerby,Cumbria
Z:vmp.Simon Wilson. Review PJH, 2008.
M:6/8
L:1/8
Q:3/8=120
K:G
E/F/|GAB BcB|cAA A2G/F/|GAB cAc|GEE E2:|!
|:e/f/|ggg fff|ege ^d2d|e^de gfe|^dBB B2B/c/|!
ded dcB|cAA A2G/F/|GAB cAc|GEE E2:|

